X:1
T:Archanjo Soares
M:2/4
K:G
[L:1/8] z G G B B e e g | g22 | g22 | z A A c c e e a |
a22 | a22 | z A A d d ^f ^f a | a22| a22 |
z G G B B d d g | g22 | g22 | z G G c c e e g |
g22 |g22 | z G G B B d d g | g22 | g22 |
z B B ^d ^d ^f ^f a | a2 c2 | b2 g2 | e2 ^f g |
a b c b | e22 | e22 |
